X: 62
T: REELS: Maids of Mount Kisco Set
T: Maud Millar
C: C: Trad. / Paddy Killoran (?) / Trad.; S: Various
C: Set Leaders: Mars, Anton
Z: Mars Agliullin ed., Oleg Naumov arr., Anton Zille ed.; slainte / Torc / leprecawn at The Session
N: https://thesession.org/members/26966/sets/94255
R: Reel
M: 4/4
L: 1/8
Q: 1/2=100
K: Gmaj
gf|"Em"edBA "D"GEDE|"G"G2BG d2Bd|"C"eBdB "Am"A2GA|"G/B"Beed "(D)"efgf|
"Em"edBA "D"GEDE|"G"G2BG d2Bd|"C"eBdB "D/B"A2GA|"Asus4"Beed "D"efge||
"G"dega bg"(G/B)"~g2|"C"agef g2ge|"G/B"dega "Em"bg~g2|"Asus4"aged "D"eage|
"G"dega bg"(G/B)"~g2|"C"agef ~g3a|"G/B"bgaf gfed|"C"Beed "(D)"ef||
T: Maids of Mount Kisco
K: Ador
AG|:"Am"EA~A2 B2AG|EA~A2 BGAG|"G"EG~G2 AG~G2|"Em"EG~G2 EGDG|
"Am"EA~A2 B2AG|EA~A2 BABd|"C"eg~g2 a2ge|1 "D"dBGB A2AG:|2 "D"dBGB ABdB||
|:"Am"AGAB dB"D/F#"AB|"G"G2BG DGBG|"Am"AGAB d2Bd|1 "G"eg~g2 gedB:|2 "G"eg~g2 egdg||
|:"Am (F)"ea~a2 b2af|"G"gedB GABd|"Am (F)"ea~a2 b2af|"G"gede g2eg|
"Am"a2ae "G"~g3e|dedB GABd|"Em"eA~A2 efge|1 "G"dBGB "(D)"A2Bd:|2 "G"dBGB "(D)"A2||
T: Red-Haired Lass
K: Gmaj
"G"DGGF ~G2"(D)"BG|"(G/B)"~G2BG AG"(C)"EG|"G/B"DGGF "(Em)"GABd|"Am"egdB "D"cBAG|
"G"DGGF "(Am)"~G2BG|"(G/B)"~G2BG "(C)"AGEG|"G/B"DGGF "(Em)"GABd|"Am"gedB "D"cABc||
"G"d2"G/B"gd "C"ed"G/B"gd|d2gd "D"BGBc|"G"d2"G/B"gd "C"ed"G/B"ef|"Em"gedB "D"cABc|
"G"d2"G/B"gd "C"ed"G/B"gd|d2gd "D"BGAB|"Am"c2cA "G/B"B2BA|"C"GA (3Bcd "D"(3efg dB||

